X:1
T:[ID 5-28b]
T:[ID 5-28b]
T:Bezeichnung standardisiert: Tantz Tantz
T:Urheber unbekannt Datum in der hier transkribierten schriftlichen Quelle: 1773
C:Urheber unbekannt
C:Datum in der hier transkribierten schriftlichen Quelle: 1773
L:1/8
M:2/4
K:G
V:1 treble 
V:1
 Bd/B/ GG | ef g2 | Bd/B/ GG | AF G2 :: Bd/B/ GF | ED/E/ C2 | ce/c/ AG | FE/F/ D2 | ef g2 | %9
 de/f/ gc | B/d/B/G/ A/c/A/F/ | G2 G,2 :| %12

